packages/foundations/assets/icons/functional/images/business & payment/shopping_bag_16.svg

<svg width="16" height="16" viewBox="0 0 16 16" fill="none" xmlns="http://www.w3.org/2000/svg">
<g clip-path="url(#clip0_184_104)">
<path fill-rule="evenodd" clip-rule="evenodd" d="M7.99999 1.59998C9.79999 1.59998 11.175 2.89998 11.2 4.79998H12.325C12.75 4.79998 13.1 5.12498 13.125 5.54998L13.6 13.55C13.625 14 13.25 14.4 12.8 14.4H3.19999C2.74999 14.4 2.37499 14 2.39999 13.55L2.87499 5.54998C2.88677 5.34624 2.97636 5.15482 3.12524 5.01525C3.27412 4.87567 3.47092 4.79861 3.67499 4.79998H4.79999C4.79999 2.89998 6.19999 1.59998 7.99999 1.59998ZM11.575 6.39998H4.42499L4.04999 12.8H11.95L11.575 6.39998ZM7.99999 3.19998C6.82499 3.19998 6.39999 3.99998 6.39999 4.79998H9.59999C9.59999 3.99998 9.19999 3.19998 7.99999 3.19998ZM8.79999 7.99998V8.79998C8.79999 9.24998 8.44999 9.59998 7.99999 9.59998C7.89456 9.60132 7.78992 9.58154 7.69226 9.54182C7.59459 9.50209 7.50586 9.44321 7.43131 9.36865C7.35675 9.2941 7.29787 9.20537 7.25815 9.1077C7.21842 9.01004 7.19864 8.90541 7.19999 8.79998V7.99998H5.59999V8.79998C5.59999 9.99998 6.39999 11.2 7.99999 11.2C9.59999 11.2 10.4 9.99998 10.4 8.79998V7.99998H8.79999Z" fill="#1A1C1F"/>
</g>
<defs>
<clipPath id="clip0_184_104">
<rect width="16" height="16" fill="white"/>
</clipPath>
</defs>
</svg>

<svg xmlns="http://www.w3.org/2000/svg" width="16" height="16" fill="none"><g clip-path="url(#a)"><path fill="#1A1C1F" fill-rule="evenodd" d="M8 1.6c1.8 0 3.175 1.3 3.2 3.2h1.125c.425 0 .775.325.8.75l.475 8c.025.45-.35.85-.8.85H3.2c-.45 0-.825-.4-.8-.85l.475-8a.796.796 0 0 1 .8-.75H4.8c0-1.9 1.4-3.2 3.2-3.2m3.575 4.8h-7.15l-.375 6.4h7.9zM8 3.2c-1.175 0-1.6.8-1.6 1.6h3.2c0-.8-.4-1.6-1.6-1.6M8.8 8v.8c0 .45-.35.8-.8.8a.79.79 0 0 1-.8-.8V8H5.6v.8c0 1.2.8 2.4 2.4 2.4s2.4-1.2 2.4-2.4V8z" clip-rule="evenodd"/></g><defs><clipPath id="a"><path fill="#fff" d="M0 0h16v16H0z"/></clipPath></defs></svg>
